sources/design/Outline/tilde.svg

<svg:svg xmlns:cc="http://creativecommons.org/ns#" xmlns:dc="http://purl.org/dc/elements/1.1/" xmlns:inkscape="http://www.inkscape.org/namespaces/inkscape" xmlns:rdf="http://www.w3.org/1999/02/22-rdf-syntax-ns#" xmlns:sodipodi="http://sodipodi.sourceforge.net/DTD/sodipodi-0.dtd" xmlns:svg="http://www.w3.org/2000/svg" xml:space="preserve" width="1000" height="1000" version="1.1" style="clip-rule:evenodd;fill-rule:evenodd;image-rendering:optimizeQuality;shape-rendering:geometricPrecision;text-rendering:geometricPrecision" viewBox="0 0 1000 1000" id="svg10" sodipodi:docname="tilde.svg" inkscape:version="1.1.1 (3bf5ae0d25, 2021-09-20)"><svg:text text-anchor="middle" x="153.84598" y="105.09556" id="top" inkscape:label="top" style="clip-rule:evenodd;fill-rule:evenodd;image-rendering:optimizeQuality;shape-rendering:geometricPrecision;text-rendering:geometricPrecision">✛</svg:text><svg:metadata id="metadata14"><rdf:RDF><cc:Work rdf:about=""><dc:format>image/svg+xml</dc:format><dc:type rdf:resource="http://purl.org/dc/dcmitype/StillImage" /><dc:title /></cc:Work></rdf:RDF></svg:metadata><sodipodi:namedview pagecolor="#ffffff" bordercolor="#666666" borderopacity="1" objecttolerance="10" gridtolerance="10" guidetolerance="10" inkscape:pageopacity="0" inkscape:pageshadow="2" inkscape:window-width="1920" inkscape:window-height="1009" id="namedview12" showgrid="false" inkscape:zoom="1.2005384" inkscape:cx="276.95907" inkscape:cy="179.91928" inkscape:window-x="0" inkscape:window-y="60" inkscape:window-maximized="1" inkscape:current-layer="svg10" showguides="true" inkscape:guide-bbox="true" inkscape:document-rotation="0" inkscape:pagecheckerboard="0"><sodipodi:guide position="0,1000" orientation="0,1" id="guide16" inkscape:label="" inkscape:locked="true" inkscape:color="rgb(0,0,255)" /><sodipodi:guide position="1763.3122,2036.1693" orientation="1000,0" id="guide18" /><sodipodi:guide position="0,200" orientation="0,1" id="guide20" inkscape:label="base" inkscape:locked="true" inkscape:color="rgb(0,0,255)" /><inkscape:grid type="xygrid" id="grid24" originx="-473.37552" originy="-489.69235" /><sodipodi:guide position="0,0" orientation="0,1" id="guide34" inkscape:label="bottom" inkscape:locked="true" inkscape:color="rgb(0,0,255)" /><sodipodi:guide position="225.05109,1693.3186" orientation="0,1" id="guide44" inkscape:label="" inkscape:locked="false" inkscape:color="rgb(0,0,255)" /><sodipodi:guide position="0,900" orientation="0,1" id="guide46" inkscape:label="" inkscape:locked="true" inkscape:color="rgb(0,0,255)" /><sodipodi:guide position="319.02353,618.5045" orientation="1,0" id="guide841" inkscape:label="width" />    <sodipodi:guide position="141.90494,800.03501" orientation="0,-1" id="guide851" /></sodipodi:namedview>
 <svg:defs id="defs4"><inkscape:path-effect effect="fillet_chamfer" id="path-effect853" is_visible="true" lpeversion="1" satellites_param="F,0,0,1,0,14.143355,0,1 @ F,0,0,1,0,8.6413743,0,1 @ F,0,0,1,0,0,0,1 @ F,0,0,1,0,0,0,1 @ F,0,0,1,0,0,0,1 @ F,0,0,1,0,0,0,1 @ F,0,0,1,0,0,0,1 @ F,0,0,1,0,10.485043,0,1 @ F,0,0,1,0,14.70213,0,1 @ F,0,0,1,0,0,0,1 @ F,0,0,1,0,0,0,1 @ F,0,0,1,0,0,0,1 @ F,0,0,1,0,0,0,1 @ F,0,0,1,0,0,0,1 @ F,0,0,1,0,0,0,1" unit="px" method="auto" mode="F" radius="0" chamfer_steps="1" flexible="false" use_knot_distance="true" apply_no_radius="true" apply_with_radius="true" only_selected="true" hide_knots="false" /><inkscape:path-effect effect="spiro" id="path-effect854" is_visible="true" lpeversion="1" /><inkscape:path-effect effect="spiro" id="path-effect928" is_visible="true" lpeversion="1" /><inkscape:path-effect effect="spiro" id="path-effect921" is_visible="true" lpeversion="1" /><inkscape:path-effect effect="spiro" id="path-effect917" is_visible="true" lpeversion="1" /><inkscape:path-effect effect="spiro" id="path-effect849" is_visible="true" lpeversion="1" /><inkscape:path-effect effect="spiro" id="path-effect851" is_visible="true" lpeversion="1" />
  <svg:style type="text/css" id="style2">
   
    .fil0 {fill:#EF7F1A;fill-rule:nonzero}
   
  </svg:style>
 <inkscape:path-effect effect="spiro" id="path-effect1214" is_visible="true" lpeversion="1" /><inkscape:path-effect effect="spiro" id="path-effect1195" is_visible="true" lpeversion="1" /><inkscape:path-effect effect="spiro" id="path-effect992" is_visible="true" lpeversion="1" /><inkscape:path-effect effect="spiro" id="path-effect1060" is_visible="true" lpeversion="1" /><inkscape:path-effect effect="spiro" id="path-effect1047" is_visible="true" lpeversion="1" /><inkscape:path-effect effect="spiro" id="path-effect1085" is_visible="true" lpeversion="1" /><inkscape:path-effect effect="spiro" id="path-effect1286" is_visible="true" lpeversion="1" /></svg:defs>
 
<svg:g id="path852"><svg:path style="color:#000000;clip-rule:nonzero;fill:#1a5fb4;fill-rule:nonzero;stroke-linecap:round;stroke-linejoin:round;-inkscape-stroke:none;paint-order:fill stroke markers;shape-rendering:auto" d="M 281.23437,-60.349609 C 268.21673,-59.554861 259.07063,-51.367043 254.3418,-44.939453 C 246.09227,-33.726419 235.84234,-23.887399000000002 224.32227,-16.142578 C 215.64872,-10.311448 206.62066000000002,-5.935008700000001 197.75586,-3.5 C 188.96474,-1.0852309 180.04760000000002,-0.5698440200000001 172.30273,-2.0078125 C 159.98213,-4.2953459 145.41485,-12.977588 128.2168,-24.259766 C 110.79773,-35.68693 89.447874,-50.220169 60.947266,-54.630859 C 35.277756999999994,-58.603415 9.326653999999998,-52.683565 -12.09375,-38.548828 C -21.249326,-32.507315 -25.474173,-25.089679 -28.142578,-17.955078 C -30.810983,-10.820477 -32.090046,-3.4689259999999997 -30.330078,5.775390599999998 L -13.96875,91.716797 C -13.288651,95.28905 -12.620163,98.93697 -9.6972656,104.46094 C -6.7743687,109.9849 1.8536766,120.88396999999999 16.552734,121.87304999999999 C 31.251792000000002,122.86213 39.1455,115.02323999999999 42.865234,110.95116999999999 C 46.584969,106.8791 48.233047,103.79176999999999 49.833984,100.72655999999999 C 52.705476000000004,95.228714 57.25998,90.37074999999999 62.304687,87.328125 C 69.83274300000001,82.787714 80.998377,80.639182 92.722656,81.746094 C 104.74136,82.880802 117.94273,87.171424 131.86133,93.277344 C 146.23333000000002,99.582167 161.72441,107.98394 179.70703,115.39258 C 197.77351,122.83577 218.5602,129.26202 241.76562,129.08983999999998 C 263.04196,128.93197999999998 283.89518,123.05841999999998 302.12695,112.08983999999998 C 314.70712000000003,104.52137999999998 325.7101,94.69740599999997 334.66211000000004,83.20117199999999 C 342.36261,73.31213799999999 344.41194,63.757778999999985 345.19141,54.82031199999999 C 345.97088,45.88284599999999 345.3136,37.343293999999986 341.58984000000004,27.841796999999985 L 316.17773000000005,-37.001953000000015 C 312.74672000000004,-45.756504000000014 303.17728000000005,-58.49217700000001 287.04883000000007,-60.210937000000015 C 285.0327700000001,-60.42578300000002 283.09404000000006,-60.46314500000002 281.23437000000007,-60.349609000000015 L 281.23437,-60.349609 M 43.900391,4.2519531 C 46.577456,4.1371246 49.22516,4.2680459 51.771484,4.6621094 C 62.140276,6.2667602 74.403459,12.729305 88.328125,21.496094 C 70.977432,21.195669 52.841418,24.501159 36.009766,33.416016 L 30.953125,6.8652344 C 35.159188,5.4357627 39.539939,4.4389878 43.900391,4.2519531 M 274.40234,20.835937 L 285.25781,48.539062 C 281.16818,53.270048 276.46394,57.508028 271.19531,60.677734 C 262.32979,66.011398 251.6663,69.015031 241.32031,69.091797 C 229.83499,69.177017 216.57214000000002,65.687831 202.5625,59.916016 C 200.91788,59.238452 199.08828,58.293425 197.41406,57.556641 C 202.92987,56.795683 208.37967,55.802709 213.64844,54.355469 C 230.02427,49.85731 244.74759,42.423279 257.79687,33.650391 C 263.61531,29.738723 269.09227,25.383260999999997 274.40234000000004,20.835937 L 274.40234,20.835937 M 285.51757999999995,49.201172 L 285.72655999999995,49.734375 C 285.52914999999996,49.230649 285.56699,49.356549 285.50780999999995,49.214844 C 285.50874999999996,49.212444 285.51680999999996,49.203634 285.51780999999994,49.201174 L 285.51757999999995,49.201172 M 285.39061999999996,49.400391 C 285.39761999999996,49.479960999999996 285.42382,49.540666 285.41801999999996,49.607422 C 285.39271999999994,49.897742 285.22264999999993,49.896515 285.39061999999996,49.400391 M 44.835937,79.783203 C 45.035112,80.441685 44.998603,80.632382 44.972656,80.496094 L 44.835937,79.783203" id="path15877" /></svg:g></svg:svg>

<svg:svg xmlns:cc="http://creativecommons.org/ns#" xmlns:dc="http://purl.org/dc/elements/1.1/" xmlns:inkscape="http://www.inkscape.org/namespaces/inkscape" xmlns:rdf="http://www.w3.org/1999/02/22-rdf-syntax-ns#" xmlns:sodipodi="http://sodipodi.sourceforge.net/DTD/sodipodi-0.dtd" xmlns:svg="http://www.w3.org/2000/svg" xml:space="preserve" width="1000" height="1000" version="1.1" style="clip-rule:evenodd;fill-rule:evenodd;image-rendering:optimizeQuality;shape-rendering:geometricPrecision;text-rendering:geometricPrecision" viewBox="0 0 1000 1000" id="svg10" sodipodi:docname="tilde.svg" inkscape:version="1.1.1 (3bf5ae0d25, 2021-09-20)"><svg:text text-anchor="middle" x="153.84598" y="105.09556" id="top" inkscape:label="top" style="clip-rule:evenodd;fill-rule:evenodd;image-rendering:optimizeQuality;shape-rendering:geometricPrecision;text-rendering:geometricPrecision">✛</svg:text><svg:metadata id="metadata14"><rdf:RDF><cc:Work rdf:about=""><dc:format>image/svg+xml</dc:format><dc:type rdf:resource="http://purl.org/dc/dcmitype/StillImage" /><dc:title /></cc:Work></rdf:RDF></svg:metadata><sodipodi:namedview pagecolor="#ffffff" bordercolor="#666666" borderopacity="1" objecttolerance="10" gridtolerance="10" guidetolerance="10" inkscape:pageopacity="0" inkscape:pageshadow="2" inkscape:window-width="1920" inkscape:window-height="1009" id="namedview12" showgrid="false" inkscape:zoom="1.2005384" inkscape:cx="276.95907" inkscape:cy="179.91928" inkscape:window-x="0" inkscape:window-y="60" inkscape:window-maximized="1" inkscape:current-layer="svg10" showguides="true" inkscape:guide-bbox="true" inkscape:document-rotation="0" inkscape:pagecheckerboard="0"><sodipodi:guide position="0,1000" orientation="0,1" id="guide16" inkscape:label="" inkscape:locked="true" inkscape:color="rgb(0,0,255)" /><sodipodi:guide position="1763.3122,2036.1693" orientation="1000,0" id="guide18" /><sodipodi:guide position="0,200" orientation="0,1" id="guide20" inkscape:label="base" inkscape:locked="true" inkscape:color="rgb(0,0,255)" /><inkscape:grid type="xygrid" id="grid24" originx="-473.37552" originy="-489.69235" /><sodipodi:guide position="0,0" orientation="0,1" id="guide34" inkscape:label="bottom" inkscape:locked="true" inkscape:color="rgb(0,0,255)" /><sodipodi:guide position="225.05109,1693.3186" orientation="0,1" id="guide44" inkscape:label="" inkscape:locked="false" inkscape:color="rgb(0,0,255)" /><sodipodi:guide position="0,900" orientation="0,1" id="guide46" inkscape:label="" inkscape:locked="true" inkscape:color="rgb(0,0,255)" /><sodipodi:guide position="319.02353,618.5045" orientation="1,0" id="guide841" inkscape:label="width" />    <sodipodi:guide position="141.90494,800.03501" orientation="0,-1" id="guide851" /></sodipodi:namedview>
 <svg:defs id="defs4"><inkscape:path-effect effect="fillet_chamfer" id="path-effect853" is_visible="true" lpeversion="1" satellites_param="F,0,0,1,0,14.143355,0,1 @ F,0,0,1,0,8.6413743,0,1 @ F,0,0,1,0,0,0,1 @ F,0,0,1,0,0,0,1 @ F,0,0,1,0,0,0,1 @ F,0,0,1,0,0,0,1 @ F,0,0,1,0,0,0,1 @ F,0,0,1,0,10.485043,0,1 @ F,0,0,1,0,14.70213,0,1 @ F,0,0,1,0,0,0,1 @ F,0,0,1,0,0,0,1 @ F,0,0,1,0,0,0,1 @ F,0,0,1,0,0,0,1 @ F,0,0,1,0,0,0,1 @ F,0,0,1,0,0,0,1" unit="px" method="auto" mode="F" radius="0" chamfer_steps="1" flexible="false" use_knot_distance="true" apply_no_radius="true" apply_with_radius="true" only_selected="true" hide_knots="false" /><inkscape:path-effect effect="spiro" id="path-effect854" is_visible="true" lpeversion="1" /><inkscape:path-effect effect="spiro" id="path-effect928" is_visible="true" lpeversion="1" /><inkscape:path-effect effect="spiro" id="path-effect921" is_visible="true" lpeversion="1" /><inkscape:path-effect effect="spiro" id="path-effect917" is_visible="true" lpeversion="1" /><inkscape:path-effect effect="spiro" id="path-effect849" is_visible="true" lpeversion="1" /><inkscape:path-effect effect="spiro" id="path-effect851" is_visible="true" lpeversion="1" />
  <svg:style type="text/css" id="style2">
   
    .fil0 {fill:#EF7F1A;fill-rule:nonzero}
   
  </svg:style>
 <inkscape:path-effect effect="spiro" id="path-effect1214" is_visible="true" lpeversion="1" /><inkscape:path-effect effect="spiro" id="path-effect1195" is_visible="true" lpeversion="1" /><inkscape:path-effect effect="spiro" id="path-effect992" is_visible="true" lpeversion="1" /><inkscape:path-effect effect="spiro" id="path-effect1060" is_visible="true" lpeversion="1" /><inkscape:path-effect effect="spiro" id="path-effect1047" is_visible="true" lpeversion="1" /><inkscape:path-effect effect="spiro" id="path-effect1085" is_visible="true" lpeversion="1" /><inkscape:path-effect effect="spiro" id="path-effect1286" is_visible="true" lpeversion="1" /></svg:defs>
 
<svg:g id="path852"><svg:path style="color:#000000;clip-rule:nonzero;fill:#1a5fb4;fill-rule:nonzero;stroke-linecap:round;stroke-linejoin:round;-inkscape-stroke:none;shape-rendering:auto" d="m 281.23437,-60.349609 c -13.01764,0.794748 -22.16374,8.982566 -26.89257,15.410156 -8.24953,11.213034 -18.49946,21.052054 -30.01953,28.796875 -8.67355,5.83113 -17.70161,10.2075693 -26.56641,12.642578 -8.79112,2.4147691 -17.70826,2.93015598 -25.45313,1.4921875 C 159.98213,-4.2953459 145.41485,-12.977588 128.2168,-24.259766 110.79773,-35.68693 89.447874,-50.220169 60.947266,-54.630859 c -25.669509,-3.972556 -51.620612,1.947294 -73.041016,16.082031 -9.155576,6.041513 -13.380423,13.459149 -16.048828,20.59375 -2.668405,7.134601 -3.947468,14.486152 -2.1875,23.7304686 L -13.96875,91.716797 c 0.680099,3.572253 1.348587,7.220173 4.2714844,12.744143 2.9228969,5.52396 11.5509422,16.42303 26.2499996,17.41211 14.699058,0.98908 22.592766,-6.84981 26.3125,-10.92188 3.719735,-4.07207 5.367813,-7.1594 6.96875,-10.22461 2.871492,-5.497846 7.425996,-10.35581 12.470703,-13.398435 7.528056,-4.540411 18.69369,-6.688943 30.417969,-5.582031 12.018704,1.134708 25.220074,5.42533 39.138674,11.53125 14.372,6.304823 29.86308,14.706596 47.8457,22.115236 18.06648,7.44319 38.85317,13.86944 62.05859,13.69726 21.27634,-0.15786 42.12956,-6.03142 60.36133,-17 12.58017,-7.56846 23.58315,-17.392434 32.53516,-28.888668 7.7005,-9.889034 9.74983,-19.443393 10.5293,-28.38086 0.77947,-8.937466 0.12219,-17.477018 -3.60157,-26.978515 l -25.41211,-64.84375 c -3.43101,-8.754551 -13.00045,-21.490224 -29.1289,-23.208984 -2.01606,-0.214846 -3.95479,-0.252208 -5.81446,-0.138672 z M 43.900391,4.2519531 C 46.577456,4.1371246 49.22516,4.2680459 51.771484,4.6621094 62.140276,6.2667602 74.403459,12.729305 88.328125,21.496094 70.977432,21.195669 52.841418,24.501159 36.009766,33.416016 L 30.953125,6.8652344 C 35.159188,5.4357627 39.539939,4.4389878 43.900391,4.2519531 Z M 274.40234,20.835937 285.25781,48.539062 c -4.08963,4.730986 -8.79387,8.968966 -14.0625,12.138672 -8.86552,5.333664 -19.52901,8.337297 -29.875,8.414063 -11.48532,0.08522 -24.74817,-3.403966 -38.75781,-9.175781 -1.64462,-0.677564 -3.47422,-1.622591 -5.14844,-2.359375 5.51581,-0.760958 10.96561,-1.753932 16.23438,-3.201172 16.37583,-4.498159 31.09915,-11.93219 44.14843,-20.705078 5.81844,-3.911668 11.2954,-8.26713 16.60547,-12.814454 z m 11.11524,28.365235 0.20898,0.533203 c -0.19741,-0.503726 -0.15957,-0.377826 -0.21875,-0.519531 9.4e-4,-0.0024 0.009,-0.01121 0.01,-0.01367 z m -0.12696,0.199219 c 0.007,0.07957 0.0332,0.140275 0.0274,0.207031 -0.0253,0.29032 -0.19537,0.289093 -0.0274,-0.207031 z M 44.835937,79.783203 c 0.199175,0.658482 0.162666,0.849179 0.136719,0.712891 z" id="path15841" /></svg:g></svg:svg>
